X: 414
T: Tea in the Morning   #2
R: slip-jig, hop-jig
%S: s:2 b:10(5+5)
B: Francis O'Neill: "The Dance Music of Ireland" (1907) #414
Z: Frank Nordberg - http://www.musicaviva.com
F: http://www.musicaviva.com/abc/tunes/ireland/oneill-1001/0414/oneill-1001-0414-1.abc
M: 9/8
L: 1/8
K: G
"^A"\
|: d2G G(FG/A/) B3 | Gzd dzG ABc | d2G GFG/A/ B3 | dcB AGF ABc "^B":: ded czd B3 |
| Gzd dzG ABc |[1 ded czd B2c | dcB AGF ABc :|[2 dzg fdc B2c | dcB AGF ABc |]
